X:9
T:Woodcock Hill HP
M:4/4
L:1/8
S:Darcie's TrTuneSbk Vo.2 (1998) p. 45
R:Hornpipe
Z:sika
K:D
 (3ABc |: "D"dcdf "A"ec (3ABc | "G"dBGB "D"AFDF | "Emin"EGFA "G"GBgf |
"A"edcB AB (3cBA | "D"dcdf "A"edeg | "D"fefg afdA |
"G"(3Bcd cB "A"(3ABA GFE |1 "D"DdAF d2 (3ABc:|2  "D"DdAF D3|:
E | "A"A2 Ac ecAc | edcB Acea | "G"gfeg "D"fedf |
"E"(3efe (3dcB "A"(3ABA (3GFE | "D"DFAd "Emin"EGBe |
"D"FAdf afdA | "G"(3Bcd cB "A"(3ABA (3GFE | "D"DdAF D2 :|
